Sources/FrostedUI/Resources/Icons.xcassets/messageNotification24.imageset/message-notification-24.svg

<svg width="24" height="24" viewBox="0 0 24 24" fill="none" xmlns="http://www.w3.org/2000/svg" data-fui-icon="true">
  <path
    d="M12.75 3C13.1642 3 13.5 3.33579 13.5 3.75C13.5 4.16421 13.1642 4.5 12.75 4.5H4.75C4.05964 4.5 3.5 5.05964 3.5 5.75V16.25C3.5 16.9404 4.05964 17.5 4.75 17.5H8.65137C9.06246 17.5 9.46129 17.6451 9.77637 17.9092L11.8408 19.6396C11.9331 19.717 12.068 19.7178 12.1611 19.6406L14.2598 17.9023C14.5737 17.6423 14.9686 17.5 15.376 17.5H19.25C19.9404 17.5 20.5 16.9404 20.5 16.25V12.25C20.5 11.8358 20.8358 11.5 21.25 11.5C21.6642 11.5 22 11.8358 22 12.25V16.25C22 17.7688 20.7688 19 19.25 19H15.376C15.3177 19 15.2614 19.0206 15.2168 19.0576L13.1182 20.7959C12.4677 21.3347 11.5254 21.3318 10.8779 20.7891L8.8125 19.0586C8.7675 19.0209 8.71013 19 8.65137 19H4.75C3.23122 19 2 17.7688 2 16.25V5.75C2 4.23122 3.23122 3 4.75 3H12.75ZM7.5 10.125C7.98325 10.125 8.375 10.5168 8.375 11C8.375 11.4832 7.98325 11.875 7.5 11.875C7.01675 11.875 6.625 11.4832 6.625 11C6.625 10.5168 7.01675 10.125 7.5 10.125ZM12 10.125C12.4832 10.125 12.875 10.5168 12.875 11C12.875 11.4832 12.4832 11.875 12 11.875C11.5168 11.875 11.125 11.4832 11.125 11C11.125 10.5168 11.5168 10.125 12 10.125ZM16.5 10.125C16.9832 10.125 17.375 10.5168 17.375 11C17.375 11.4832 16.9832 11.875 16.5 11.875C16.0168 11.875 15.625 11.4832 15.625 11C15.625 10.5168 16.0168 10.125 16.5 10.125ZM19 2C21.2091 2 23 3.79085 23 6C23 8.20915 21.2091 10 19 10C16.7909 10 15 8.20915 15 6C15 3.79085 16.7909 2 19 2ZM19 3.5C17.6193 3.5 16.5 4.61929 16.5 6C16.5 7.38071 17.6193 8.5 19 8.5C20.3807 8.5 21.5 7.38071 21.5 6C21.5 4.61929 20.3807 3.5 19 3.5Z"
    fill="currentColor"
  />
</svg>

<svg xmlns="http://www.w3.org/2000/svg" width="24" height="24" fill="none" data-fui-icon="true" viewBox="0 0 24 24"><path fill="currentColor" d="M12.75 3a.75.75 0 0 1 0 1.5h-8c-.69 0-1.25.56-1.25 1.25v10.5c0 .69.56 1.25 1.25 1.25h3.901c.411 0 .81.145 1.125.41l2.065 1.73a.25.25 0 0 0 .32 0l2.099-1.738a1.75 1.75 0 0 1 1.116-.402h3.874c.69 0 1.25-.56 1.25-1.25v-4a.75.75 0 0 1 1.5 0v4A2.75 2.75 0 0 1 19.25 19h-3.874a.25.25 0 0 0-.16.058l-2.098 1.738a1.75 1.75 0 0 1-2.24-.007l-2.065-1.73A.25.25 0 0 0 8.65 19H4.75A2.75 2.75 0 0 1 2 16.25V5.75A2.75 2.75 0 0 1 4.75 3zM7.5 10.125a.875.875 0 1 1 0 1.75.875.875 0 0 1 0-1.75m4.5 0a.875.875 0 1 1 0 1.75.875.875 0 0 1 0-1.75m4.5 0a.875.875 0 1 1 0 1.75.875.875 0 0 1 0-1.75M19 2a4 4 0 1 1 0 8 4 4 0 0 1 0-8m0 1.5a2.5 2.5 0 1 0 0 5 2.5 2.5 0 0 0 0-5"/></svg>
